X:1
T:Title
%%score { ( 1 3 4 ) | ( 2 5 ) }
L:1/8
M:3/4
K:G
V:1 treble nm="Grand Piano"
V:3 treble 
V:4 treble 
V:2 bass 
V:5 bass 
V:1
 z2 z2[Q:1/4=100] D>D | [B,DG]2 [B,DG]2 [DB]>[DG] | [DA]2 [DA]2 [Ec]>[Ee] | d4 z2 | %4
[M:2/4] [G,B,G]4 |[M:1/4] D>D |[M:3/4] [B,DG]2 [B,DG]2 [DB]>[DG] | [DA]2 [DA]2 [Ec]>[Ee] | d4 z2 | %9
[M:2/4] [B,G]4 |[M:1/4] B>c |[M:3/4] d2 B2 [Dd]>[Dd] | [Ec]2 A2 c>c | B4 z2 |[M:2/4] [DFA]4 | %15
[M:1/4] D>D |[M:3/4] [B,DG]2 [B,DG]2 [EA]>A | B2 B2 [Ec]>[Fe] | d4 z2 |[M:2/4] [B,G]4 |] %20
V:2
 z2 z2 D,>D, | G,,2 G,,2 [G,,G,]>[B,,G,] | [D,F,]2 [D,F,]2 [C,G,]>[C,G,] | G,3 G, [A,,G,]>[D,F,] | %4
[M:2/4] G,,4 |[M:1/4] D,>D, |[M:3/4] G,,2 G,,2 [G,,G,]>[B,,G,] | [D,F,]2 [D,F,]2 [C,G,]>[C,G,] | %8
 G,3 G, [A,,A,]>D, |[M:2/4] G,,4 |[M:1/4] [G,D]>[G,A,D] |[M:3/4] [G,B,D]2 [G,D]2 [B,,G,]>[B,,G,] | %12
 [A,,G,]2 [D,F,D]2 [D,F,D]>[D,F,D] | [G,D]2 [B,D]2 [G,B,D]>[G,^CE] |[M:2/4] D,4 |[M:1/4] D,>D, | %16
[M:3/4] G,,2 G,,2 [C,G,]>[D,F,D] | [G,D]2 [G,D]2 [C,G,]>[C,A,] | [B,,B,]2 [E,B,]2 [A,,A,]>D, | %19
[M:2/4] G,,4 |] %20
V:3
 x6 | x6 | x6 | G2 z B [Ec]>[DA] |[M:2/4] x4 |[M:1/4] x2 |[M:3/4] x6 | x6 | G2 z B [Gc]>[A,FA] | %9
[M:2/4] x4 |[M:1/4] x2 |[M:3/4] x6 | x6 | z2 GG B>B |[M:2/4] x4 |[M:1/4] x2 |[M:3/4] x6 | x6 | %18
 G2 z B [Ec]>[A,FA] |[M:2/4] x4 |] %20
V:4
 x6 | x6 | x6 | z2 G2 z2 |[M:2/4] x4 |[M:1/4] x2 |[M:3/4] x6 | x6 | z2 G2 z2 |[M:2/4] x4 | %10
[M:1/4] x2 |[M:3/4] x6 | x6 | x6 |[M:2/4] x4 |[M:1/4] x2 |[M:3/4] x6 | x6 | z2 G2 z2 |[M:2/4] x4 |] %20
V:5
 x6 | x6 | x6 | B,,2 E,2 z2 |[M:2/4] x4 |[M:1/4] x2 |[M:3/4] x6 | x6 | B,,2 E,2 z2 |[M:2/4] x4 | %10
[M:1/4] x2 |[M:3/4] x6 | x6 | x6 |[M:2/4] x4 |[M:1/4] x2 |[M:3/4] x6 | x6 | x6 |[M:2/4] x4 |] %20

